;FLAVOR:Marlin
;TIME:13747
;Filament used: 16.8594m
;Layer height: 0.28
;MINX:31.5
;MINY:51.5
;MINZ:0.28
;MAXX:203.5
;MAXY:183.5
;MAXZ:3.08
;TARGET_MACHINE.NAME:Creality Ender-3
;Generated with Cura_SteamEngine 5.10.0
M140 S65
M105
M190 S65
M104 S210
M105
M109 S210
; Ender 3 Custom Start G-code
G92 E0 ; Reset Extruder
G28 ; Home all axes
G1 Z2.0 F3000 ; Move Z Axis up little to prevent scratching of Heat Bed
G1 X0.1 Y20 Z0.3 F5000.0 ; Move to start position
G1 X0.1 Y200.0 Z0.3 F1500.0 E15 ; Draw the first line
G1 X0.4 Y200.0 Z0.3 F5000.0 ; Move to side a little
G1 X0.4 Y20 Z0.3 F1500.0 E30 ; Draw the second line
G92 E0 ; Reset Extruder
G1 Z2.0 F3000 ; Move Z Axis up little to prevent scratching of Heat Bed
G1 X5 Y20 Z0.3 F5000.0 ; Move over to prevent blob squish
M82 ;absolute extrusion mode
G92 E0
G92 E0
G1 F2700 E-5
;LAYER_COUNT:11
;LAYER:0
M107
G0 F6000 X36.424 Y53.346 Z0.28
;TYPE:SKIRT
G1 F2700 E0
G1 F1200 X37.321 Y52.811 E0.04863
G1 X38.199 Y52.39 E0.09397
G1 X39.112 Y52.048 E0.13937
G1 X40.049 Y51.789 E0.18464
G1 X41.016 Y51.611 E0.23042
G1 X42.155 Y51.515 E0.28365
G1 X42.812 Y51.5 E0.31425
G1 X191.804 Y51.5 E7.25194
G1 X192.684 Y51.513 E7.29292
G1 X193.656 Y51.572 E7.33826
G1 X194.619 Y51.718 E7.38362
G1 X195.566 Y51.949 E7.42901
G1 X196.454 Y52.249 E7.47265
G1 X197.346 Y52.639 E7.51798
G1 X198.229 Y53.126 E7.56494
G1 X198.98 Y53.628 E7.607
G1 X199.795 Y54.286 E7.65578
G1 X200.493 Y54.964 E7.70109
G1 X201.129 Y55.701 E7.74642
G1 X201.699 Y56.491 E7.79178
G1 X202.161 Y57.267 E7.83383
G1 X202.615 Y58.209 E7.88252
G1 X202.944 Y59.087 E7.92618
G1 X203.213 Y60.059 E7.97314
G1 X203.39 Y61.025 E8.01887
G1 X203.485 Y62.155 E8.07168
G1 X203.5 Y62.83 E8.10311
G1 X203.499 Y171.9 E13.18187
G1 X203.488 Y172.663 E13.2174
G1 X203.431 Y173.636 E13.26279
G1 X203.286 Y174.599 E13.30813
G1 X203.057 Y175.545 E13.35346
G1 X202.746 Y176.469 E13.39885
G1 X202.354 Y177.36 E13.44418
G1 X201.886 Y178.212 E13.48944
G1 X201.364 Y178.993 E13.53319
G1 X200.731 Y179.778 E13.58014
G1 X200.106 Y180.429 E13.62216
G1 X199.317 Y181.117 E13.67091
G1 X198.557 Y181.667 E13.71459
G1 X197.69 Y182.184 E13.7616
G1 X196.812 Y182.606 E13.80696
G1 X195.901 Y182.948 E13.85227
G1 X194.962 Y183.209 E13.89765
G1 X193.996 Y183.387 E13.94339
G1 X192.845 Y183.485 E13.99718
G1 X192.17 Y183.5 E14.02862
G1 X43.064 Y183.499 E20.97161
G1 X42.331 Y183.488 E21.00575
G1 X41.359 Y183.431 E21.05109
G1 X40.396 Y183.285 E21.09644
G1 X39.45 Y183.056 E21.14176
G1 X38.526 Y182.744 E21.18718
G1 X37.636 Y182.352 E21.23246
G1 X36.813 Y181.901 E21.27616
G1 X35.974 Y181.34 E21.32316
G1 X35.27 Y180.774 E21.36522
G1 X34.517 Y180.049 E21.41389
G1 X33.88 Y179.313 E21.45922
G1 X33.35 Y178.582 E21.50126
G1 X32.814 Y177.685 E21.54992
G1 X32.392 Y176.807 E21.59528
G1 X32.05 Y175.895 E21.64063
G1 X31.79 Y174.957 E21.68595
G1 X31.612 Y173.988 E21.73183
G1 X31.514 Y172.809 E21.78692
G1 X31.5 Y172.158 E21.81724
G1 X31.501 Y63.025 E26.89893
G1 X31.512 Y62.325 E26.93153
G1 X31.57 Y61.352 E26.97691
G1 X31.716 Y60.389 E27.02227
G1 X31.946 Y59.443 E27.0676
G1 X32.259 Y58.52 E27.11298
G1 X32.651 Y57.63 E27.15827
G1 X33.121 Y56.777 E27.20362
G1 X33.664 Y55.969 E27.24895
G1 X34.231 Y55.265 E27.29104
G1 X34.956 Y54.513 E27.33968
G1 X35.692 Y53.876 E27.385
G1 X36.424 Y53.346 E27.42708
G0 F6000 X36.659 Y53.67
G1 F1200 X37.495 Y53.171 E27.47242
G1 X38.34 Y52.764 E27.51609
G1 X39.219 Y52.433 E27.55983
G1 X40.122 Y52.182 E27.60347
G1 X41.05 Y52.01 E27.64742
G1 X42.189 Y51.914 E27.70064
G1 X42.821 Y51.9 E27.73008
G1 X191.798 Y51.9 E34.66707
G1 X192.66 Y51.912 E34.70721
G1 X193.597 Y51.968 E34.75092
G1 X194.525 Y52.107 E34.79462
G1 X195.438 Y52.328 E34.83836
G1 X196.294 Y52.616 E34.88041
G1 X197.186 Y53.006 E34.92574
G1 X198.007 Y53.459 E34.96941
G1 X198.758 Y53.961 E35.01147
G1 X199.517 Y54.573 E35.05687
G1 X200.191 Y55.226 E35.10057
G1 X200.805 Y55.935 E35.14424
G1 X201.355 Y56.696 E35.18796
G1 X201.817 Y57.472 E35.23001
G1 X202.24 Y58.349 E35.27535
G1 X202.569 Y59.227 E35.31901
G1 X202.82 Y60.132 E35.36274
G1 X202.991 Y61.059 E35.40664
G1 X203.086 Y62.189 E35.45944
G1 X203.1 Y62.83 E35.48929
G1 X203.099 Y171.895 E40.56782
G1 X203.089 Y172.64 E40.60251
G1 X203.035 Y173.577 E40.64621
G1 X202.897 Y174.506 E40.68995
G1 X202.678 Y175.418 E40.73362
G1 X202.38 Y176.308 E40.77732
G1 X202.003 Y177.168 E40.82105
G1 X201.553 Y177.99 E40.86468
G1 X201.031 Y178.771 E40.90843
G1 X200.442 Y179.501 E40.9521
G1 X199.817 Y180.152 E40.99412
G1 X199.082 Y180.793 E41.03954
G1 X198.322 Y181.343 E41.08322
G1 X197.516 Y181.824 E41.12693
G1 X196.671 Y182.232 E41.17062
G1 X195.793 Y182.563 E41.21431
G1 X194.889 Y182.816 E41.25802
G1 X193.962 Y182.988 E41.30192
G1 X192.811 Y183.086 E41.35571
G1 X192.17 Y183.1 E41.38557
G1 X43.07 Y183.099 E48.32829
G1 X42.354 Y183.089 E48.36163
G1 X41.418 Y183.035 E48.40529
G1 X40.489 Y182.896 E48.44903
G1 X39.577 Y182.677 E48.4927
G1 X38.687 Y182.378 E48.53642
G1 X37.828 Y182.001 E48.5801
G1 X37.005 Y181.55 E48.6238
G1 X36.225 Y181.028 E48.6675
G1 X35.521 Y180.462 E48.70957
G1 X34.819 Y179.787 E48.75491
G1 X34.204 Y179.078 E48.79862
G1 X33.674 Y178.347 E48.84066
G1 X33.174 Y177.511 E48.88602
G1 X32.766 Y176.666 E48.92971
G1 X32.435 Y175.788 E48.9734
G1 X32.183 Y174.884 E49.0171
G1 X32.011 Y173.955 E49.0611
G1 X31.913 Y172.776 E49.11619
G1 X31.9 Y172.158 E49.14497
G1 X31.901 Y63.031 E54.22638
G1 X31.911 Y62.348 E54.25819
G1 X31.966 Y61.411 E54.30189
G1 X32.105 Y60.483 E54.34558
G1 X32.325 Y59.571 E54.38927
G1 X32.625 Y58.681 E54.433
G1 X33.002 Y57.822 E54.47668
G1 X33.453 Y57 E54.52034
G1 X33.976 Y56.22 E54.56407
G1 X34.543 Y55.516 E54.60616
G1 X35.218 Y54.815 E54.65148
G1 X35.927 Y54.2 E54.69518
G1 X36.659 Y53.67 E54.73726
G0 F6000 X36.894 Y53.994
G1 F1200 X37.669 Y53.531 E54.7793
G1 X38.482 Y53.138 E54.82135
G1 X39.327 Y52.818 E54.86342
G1 X40.196 Y52.575 E54.90544
G1 X41.084 Y52.409 E54.9475
G1 X42.223 Y52.313 E55.00073
G1 X42.83 Y52.3 E55.029
G1 X191.793 Y52.3 E61.96534
G1 X192.637 Y52.311 E62.00464
G1 X193.539 Y52.364 E62.04671
G1 X194.432 Y52.496 E62.08875
G1 X195.31 Y52.707 E62.1308
G1 X196.166 Y52.995 E62.17285
G1 X196.993 Y53.357 E62.21489
G1 X197.785 Y53.792 E62.25696
G1 X198.536 Y54.294 E62.29902
G1 X199.239 Y54.861 E62.34108
G1 X199.889 Y55.488 E62.38313
G1 X200.481 Y56.17 E62.42518
G1 X201.011 Y56.901 E62.46723
G1 X201.473 Y57.677 E62.50928
G1 X201.866 Y58.49 E62.55133
G1 X202.184 Y59.335 E62.59337
G1 X202.427 Y60.205 E62.63543
G1 X202.592 Y61.093 E62.67749
G1 X202.687 Y62.223 E62.73029
G1 X202.7 Y62.83 E62.75856
G1 X202.699 Y171.89 E67.83685
G1 X202.69 Y172.617 E67.87071
G1 X202.639 Y173.519 E67.91278
G1 X202.508 Y174.413 E67.95485
G1 X202.299 Y175.291 E67.99687
G1 X202.013 Y176.148 E68.03894
G1 X201.652 Y176.976 E68.081
G1 X201.22 Y177.768 E68.12301
G1 X200.719 Y178.52 E68.16509
G1 X200.153 Y179.224 E68.20715
G1 X199.528 Y179.875 E68.24917
G1 X198.847 Y180.469 E68.29125
G1 X198.116 Y181 E68.33332
G1 X197.342 Y181.464 E68.37534
G1 X196.529 Y181.858 E68.41741
G1 X195.685 Y182.178 E68.45944
G1 X194.815 Y182.423 E68.50153
G1 X193.928 Y182.589 E68.54354
G1 X192.777 Y182.687 E68.59733
G1 X192.17 Y182.7 E68.62561
G1 X43.075 Y182.699 E75.56809
G1 X42.377 Y182.69 E75.6006
G1 X41.476 Y182.639 E75.64262
G1 X40.582 Y182.507 E75.6847
G1 X39.704 Y182.298 E75.72672
G1 X38.847 Y182.011 E75.76881
G1 X38.02 Y181.65 E75.81083
G1 X37.227 Y181.217 E75.8529
G1 X36.476 Y180.716 E75.89493
G1 X35.772 Y180.15 E75.937
G1 X35.121 Y179.524 E75.97905
G1 X34.528 Y178.843 E76.0211
G1 X33.998 Y178.112 E76.06314
G1 X33.534 Y177.337 E76.1052
G1 X33.14 Y176.524 E76.14727
G1 X32.82 Y175.68 E76.1893
G1 X32.576 Y174.81 E76.23137
G1 X32.41 Y173.922 E76.27344
G1 X32.313 Y172.767 E76.32741
G1 X32.3 Y172.158 E76.35577
G1 X32.301 Y63.036 E81.43695
G1 X32.31 Y62.371 E81.46792
G1 X32.362 Y61.469 E81.50999
G1 X32.494 Y60.576 E81.55202
G1 X32.704 Y59.698 E81.59406
G1 X32.991 Y58.841 E81.63614
G1 X33.353 Y58.014 E81.67818
G1 X33.786 Y57.222 E81.72021
G1 X34.288 Y56.471 E81.76227
G1 X34.855 Y55.767 E81.80437
G1 X35.481 Y55.117 E81.84639
G1 X36.162 Y54.524 E81.88843
G1 X36.894 Y53.994 E81.93051
G1 F2700 E76.93051
;MESH:cutuBase.stl
G0 F6000 X43.3 Y61.835
G0 X117.5 Y171.9
;TYPE:WALL-INNER
G1 F2700 E81.93051
G1 F1200 X191.9 Y171.9 E85.39489
G1 X191.9 Y63.1 E90.46107
G1 X43.1 Y63.1 E97.38983
G1 X43.1 Y171.9 E102.45601
G1 X117.5 Y171.9 E105.92039
G0 F6000 X117.5 Y172.3
;TYPE:WALL-OUTER
G1 F1200 X192.3 Y172.3 E109.40339
G1 X192.3 Y62.7 E114.50682
G1 X42.7 Y62.7 E121.47282
G1 X42.7 Y172.3 E126.57626
G1 X117.5 Y172.3 E130.05926
G0 F6000 X117.5 Y171.54
;TYPE:SKIN
G1 F1200 X43.46 Y171.54 E133.50687
G1 X43.46 Y63.46 E138.53953
G1 X191.54 Y63.46 E145.43476
G1 X191.54 Y171.54 E150.46741
G1 X117.5 Y171.54 E153.91503
G1 F2700 E148.91503
G0 F6000 X117.5 Y171.8
G0 X43.272 Y171.728
G0 X43.2 Y170.94
G0 X43.66 Y170.94
G1 F2700 E153.91503
G1 F1200 X44.061 Y171.34 E153.9414
G0 F6000 X44.626 Y171.34
G1 F1200 X43.66 Y170.374 E154.00501
G0 F6000 X43.66 Y169.808
G1 F1200 X45.192 Y171.34 E154.1059
G0 F6000 X45.758 Y171.34
G1 F1200 X43.66 Y169.242 E154.24405
G0 F6000 X43.66 Y168.677
G1 F1200 X46.323 Y171.34 E154.41942
G0 F6000 X46.889 Y171.34
G1 F1200 X43.66 Y168.111 E154.63205
G0 F6000 X43.66 Y167.545
G1 F1200 X47.455 Y171.34 E154.88196
G0 F6000 X48.02 Y171.34
G1 F1200 X43.66 Y166.98 E155.16907
G0 F6000 X43.66 Y166.414
G1 F1200 X48.586 Y171.34 E155.49346
G0 F6000 X49.152 Y171.34
G1 F1200 X43.66 Y165.848 E155.85512
G0 F6000 X43.66 Y165.283
G1 F1200 X49.717 Y171.34 E156.25398
G0 F6000 X50.283 Y171.34
G1 F1200 X43.66 Y164.717 E156.69012
G0 F6000 X43.66 Y164.151
G1 F1200 X50.849 Y171.34 E157.16352
G0 F6000 X51.414 Y171.34
G1 F1200 X43.66 Y163.586 E157.67414
G0 F6000 X43.66 Y163.02
G1 F1200 X51.98 Y171.34 E158.22202
G0 F6000 X52.546 Y171.34
G1 F1200 X43.66 Y162.454 E158.80718
G0 F6000 X43.66 Y161.889
G1 F1200 X53.111 Y171.34 E159.42955
G0 F6000 X53.677 Y171.34
G1 F1200 X43.66 Y161.323 E160.08918
G0 F6000 X43.66 Y160.757
G1 F1200 X54.243 Y171.34 E160.78609
G0 F6000 X54.809 Y171.34
G1 F1200 X43.66 Y160.192 E161.52024
G0 F6000 X43.66 Y159.626
G1 F1200 X55.374 Y171.34 E162.29163
G0 F6000 X55.94 Y171.34
G1 F1200 X43.66 Y159.06 E163.10029
G0 F6000 X43.66 Y158.494
G1 F1200 X56.506 Y171.34 E163.94622
G0 F6000 X57.071 Y171.34
G1 F1200 X43.66 Y157.929 E164.82935
G0 F6000 X43.66 Y157.363
G1 F1200 X57.637 Y171.34 E165.74976
G0 F6000 X58.203 Y171.34
G1 F1200 X43.66 Y156.797 E166.70744
G0 F6000 X43.66 Y156.232
G1 F1200 X58.768 Y171.34 E167.70233
G0 F6000 X59.334 Y171.34
G1 F1200 X43.66 Y155.666 E168.73449
G0 F6000 X43.66 Y155.1
G1 F1200 X59.9 Y171.34 E169.80392
G0 F6000 X60.465 Y171.34
G1 F1200 X43.66 Y154.535 E170.91056
G0 F6000 X43.66 Y153.969
G1 F1200 X61.031 Y171.34 E172.05447
G0 F6000 X61.597 Y171.34
G1 F1200 X43.66 Y153.403 E173.23565
G0 F6000 X43.66 Y152.838
G1 F1200 X62.162 Y171.34 E174.45404
G0 F6000 X62.728 Y171.34
G1 F1200 X43.66 Y152.272 E175.7097
G0 F6000 X43.66 Y151.706
G1 F1200 X63.294 Y171.34 E177.00263
G0 F6000 X63.86 Y171.34
G1 F1200 X43.66 Y151.141 E178.33281
G0 F6000 X43.66 Y150.575
G1 F1200 X64.425 Y171.34 E179.70022
G0 F6000 X64.991 Y171.34
G1 F1200 X43.66 Y150.009 E181.1049
G0 F6000 X43.66 Y149.443
G1 F1200 X65.557 Y171.34 E182.54685
G0 F6000 X66.122 Y171.34
G1 F1200 X43.66 Y148.878 E184.02602
G0 F6000 X43.66 Y148.312
G1 F1200 X66.688 Y171.34 E185.54245
G0 F6000 X67.254 Y171.34
G1 F1200 X43.66 Y147.746 E187.09615
G0 F6000 X43.66 Y147.181
G1 F1200 X67.819 Y171.34 E188.68707
G0 F6000 X68.385 Y171.34
G1 F1200 X43.66 Y146.615 E190.31525
G0 F6000 X43.66 Y146.049
G1 F1200 X68.951 Y171.34 E191.9807
G0 F6000 X69.516 Y171.34
G1 F1200 X43.66 Y145.484 E193.68337
G0 F6000 X43.66 Y144.918
G1 F1200 X70.082 Y171.34 E195.4233
G0 F6000 X70.648 Y171.34
G1 F1200 X43.66 Y144.352 E197.20051
G0 F6000 X43.66 Y143.787
G1 F1200 X71.213 Y171.34 E199.01492
G0 F6000 X71.779 Y171.34
G1 F1200 X43.66 Y143.221 E200.8666
G0 F6000 X43.66 Y142.655
G1 F1200 X72.345 Y171.34 E202.75556
G0 F6000 X72.91 Y171.34
G1 F1200 X43.66 Y142.09 E204.68172
G0 F6000 X43.66 Y141.524
G1 F1200 X73.476 Y171.34 E206.64516
G0 F6000 X74.042 Y171.34
G1 F1200 X43.66 Y140.958 E208.64586
G0 F6000 X43.66 Y140.393
G1 F1200 X74.608 Y171.34 E210.68381
G0 F6000 X75.173 Y171.34
G1 F1200 X43.66 Y139.827 E212.75899
G0 F6000 X43.66 Y139.261
G1 F1200 X75.739 Y171.34 E214.87145
G0 F6000 X76.305 Y171.34
G1 F1200 X43.66 Y138.695 E217.02118
G0 F6000 X43.66 Y138.13
G1 F1200 X76.87 Y171.34 E219.20811
G0 F6000 X77.436 Y171.34
G1 F1200 X43.66 Y137.564 E221.43232
G0 F6000 X43.66 Y136.998
G1 F1200 X78.002 Y171.34 E223.6938
G0 F6000 X78.567 Y171.34
G1 F1200 X43.66 Y136.433 E225.99249
G0 F6000 X43.66 Y135.867
G1 F1200 X79.133 Y171.34 E228.32844
G0 F6000 X79.699 Y171.34
G1 F1200 X43.66 Y135.301 E230.70167
G0 F6000 X43.66 Y134.736
G1 F1200 X80.264 Y171.34 E233.11211
G0 F6000 X80.83 Y171.34
G1 F1200 X43.66 Y134.17 E235.55982
G0 F6000 X43.66 Y133.604
G1 F1200 X81.396 Y171.34 E238.0448
G0 F6000 X81.961 Y171.34
G1 F1200 X43.66 Y133.039 E240.56698
G0 F6000 X43.66 Y132.473
G1 F1200 X82.527 Y171.34 E243.12644
G0 F6000 X83.093 Y171.34
G1 F1200 X43.66 Y131.907 E245.72317
G0 F6000 X43.66 Y131.342
G1 F1200 X83.659 Y171.34 E248.35714
G0 F6000 X84.224 Y171.34
G1 F1200 X43.66 Y130.776 E251.02835
G0 F6000 X43.66 Y130.21
G1 F1200 X84.79 Y171.34 E253.73683
G0 F6000 X85.356 Y171.34
G1 F1200 X43.66 Y129.644 E256.48258
G0 F6000 X43.66 Y129.079
G1 F1200 X85.921 Y171.34 E259.26554
G0 F6000 X86.487 Y171.34
G1 F1200 X43.66 Y128.513 E262.08577
G0 F6000 X43.66 Y127.947
G1 F1200 X87.053 Y171.34 E264.94328
G0 F6000 X87.618 Y171.34
G1 F1200 X43.66 Y127.382 E267.83799
G0 F6000 X43.66 Y126.816
G1 F1200 X88.184 Y171.34 E270.76997
G0 F6000 X88.75 Y171.34
G1 F1200 X43.66 Y126.25 E273.73922
G0 F6000 X43.66 Y125.685
G1 F1200 X89.315 Y171.34 E276.74568
G0 F6000 X89.881 Y171.34
G1 F1200 X43.66 Y125.119 E279.78941
G0 F6000 X43.66 Y124.553
G1 F1200 X90.447 Y171.34 E282.87042
G0 F6000 X91.012 Y171.34
G1 F1200 X43.66 Y123.988 E285.98863
G0 F6000 X43.66 Y123.422
G1 F1200 X91.578 Y171.34 E289.14411
G0 F6000 X92.144 Y171.34
G1 F1200 X43.66 Y122.856 E292.33686
G0 F6000 X43.66 Y122.291
G1 F1200 X92.709 Y171.34 E295.56682
G0 F6000 X93.275 Y171.34
G1 F1200 X43.66 Y121.725 E298.83406
G0 F6000 X43.66 Y121.159
G1 F1200 X93.841 Y171.34 E302.13856
G0 F6000 X94.407 Y171.34
G1 F1200 X43.66 Y120.594 E305.4803
G0 F6000 X43.66 Y120.028
G1 F1200 X94.972 Y171.34 E308.85929
G0 F6000 X95.538 Y171.34
G1 F1200 X43.66 Y119.462 E312.27554
G0 F6000 X43.66 Y118.896
G1 F1200 X96.104 Y171.34 E315.72907
G0 F6000 X96.669 Y171.34
G1 F1200 X43.66 Y118.331 E319.2198
G0 F6000 X43.66 Y117.765
G1 F1200 X97.235 Y171.34 E322.74781
G0 F6000 X97.801 Y171.34
G1 F1200 X43.66 Y117.199 E326.31308
G0 F6000 X43.66 Y116.634
G1 F1200 X98.366 Y171.34 E329.91557
G0 F6000 X98.932 Y171.34
G1 F1200 X43.66 Y116.068 E333.55532
G0 F6000 X43.66 Y115.502
G1 F1200 X99.498 Y171.34 E337.23235
G0 F6000 X100.063 Y171.34
G1 F1200 X43.66 Y114.937 E340.94659
G0 F6000 X43.66 Y114.371
G1 F1200 X100.629 Y171.34 E344.69809
G0 F6000 X101.195 Y171.34
G1 F1200 X43.66 Y113.805 E348.48687
G0 F6000 X43.66 Y113.24
G1 F1200 X101.76 Y171.34 E352.31285
G0 F6000 X102.326 Y171.34
G1 F1200 X43.66 Y112.674 E356.17611
G0 F6000 X43.66 Y112.108
G1 F1200 X102.892 Y171.34 E360.07664
G0 F6000 X103.458 Y171.34
G1 F1200 X43.66 Y111.543 E364.01441
G0 F6000 X43.66 Y110.977
G1 F1200 X104.023 Y171.34 E367.98941
G0 F6000 X104.589 Y171.34
G1 F1200 X43.66 Y110.411 E372.00169
G0 F6000 X43.66 Y109.846
G1 F1200 X105.155 Y171.34 E376.05121
G0 F6000 X105.72 Y171.34
G1 F1200 X43.66 Y109.28 E380.13797
G0 F6000 X43.66 Y108.714
