;FLAVOR:Marlin
;TIME:17242
;Filament used: 21.2204m
;Layer height: 0.28
;MINX:50.5
;MINY:34
;MINZ:0.28
;MAXX:184.5
;MAXY:201
;MAXZ:5.88
;TARGET_MACHINE.NAME:Creality Ender-3
;Generated with Cura_SteamEngine 5.10.0
M140 S65
M105
M190 S65
M104 S210
M105
M109 S210
; Ender 3 Custom Start G-code
G92 E0 ; Reset Extruder
G28 ; Home all axes
G1 Z2.0 F3000 ; Move Z Axis up little to prevent scratching of Heat Bed
G1 X0.1 Y20 Z0.3 F5000.0 ; Move to start position
G1 X0.1 Y200.0 Z0.3 F1500.0 E15 ; Draw the first line
G1 X0.4 Y200.0 Z0.3 F5000.0 ; Move to side a little
G1 X0.4 Y20 Z0.3 F1500.0 E30 ; Draw the second line
G92 E0 ; Reset Extruder
G1 Z2.0 F3000 ; Move Z Axis up little to prevent scratching of Heat Bed
G1 X5 Y20 Z0.3 F5000.0 ; Move over to prevent blob squish
M82 ;absolute extrusion mode
G92 E0
G92 E0
G1 F2700 E-5
;LAYER_COUNT:21
;LAYER:0
M107
G0 F6000 X52.664 Y38.469 Z0.28
;TYPE:SKIRT
G1 F2700 E0
G1 F1200 X53.231 Y37.765 E0.04209
G1 X53.956 Y37.013 E0.09073
G1 X54.692 Y36.376 E0.13606
G1 X55.424 Y35.846 E0.17814
G1 X56.321 Y35.311 E0.22677
G1 X57.199 Y34.89 E0.27211
G1 X58.112 Y34.548 E0.31751
G1 X59.049 Y34.289 E0.36277
G1 X60.016 Y34.111 E0.40856
G1 X61.155 Y34.015 E0.46178
G1 X61.812 Y34 E0.49238
G1 X172.804 Y34 E5.66064
G1 X173.684 Y34.013 E5.70162
G1 X174.656 Y34.072 E5.74696
G1 X175.619 Y34.218 E5.79231
G1 X176.566 Y34.449 E5.8377
G1 X177.454 Y34.749 E5.88135
G1 X178.346 Y35.139 E5.92668
G1 X179.229 Y35.626 E5.97364
G1 X179.98 Y36.128 E6.0157
G1 X180.795 Y36.786 E6.06447
G1 X181.493 Y37.464 E6.10978
G1 X182.129 Y38.201 E6.15511
G1 X182.699 Y38.991 E6.20047
G1 X183.161 Y39.767 E6.24253
G1 X183.615 Y40.709 E6.29122
G1 X183.944 Y41.587 E6.33488
G1 X184.213 Y42.559 E6.38184
G1 X184.39 Y43.525 E6.42757
G1 X184.485 Y44.655 E6.48037
G1 X184.5 Y45.33 E6.51181
G1 X184.499 Y189.4 E13.22031
G1 X184.488 Y190.163 E13.25585
G1 X184.431 Y191.136 E13.30123
G1 X184.286 Y192.099 E13.34658
G1 X184.057 Y193.045 E13.3919
G1 X183.746 Y193.969 E13.4373
G1 X183.354 Y194.86 E13.48262
G1 X182.886 Y195.712 E13.52789
G1 X182.364 Y196.493 E13.57163
G1 X181.731 Y197.278 E13.61859
G1 X181.106 Y197.929 E13.66061
G1 X180.317 Y198.617 E13.70935
G1 X179.557 Y199.167 E13.75304
G1 X178.69 Y199.684 E13.80004
G1 X177.812 Y200.106 E13.8454
G1 X176.901 Y200.448 E13.89071
G1 X175.962 Y200.709 E13.93609
G1 X174.996 Y200.887 E13.98183
G1 X173.845 Y200.985 E14.03562
G1 X173.17 Y201 E14.06706
G1 X62.064 Y200.999 E19.24062
G1 X61.331 Y200.988 E19.27476
G1 X60.359 Y200.931 E19.32009
G1 X59.396 Y200.785 E19.36545
G1 X58.45 Y200.556 E19.41077
G1 X57.526 Y200.244 E19.45618
G1 X56.636 Y199.852 E19.50146
G1 X55.813 Y199.401 E19.54516
G1 X54.974 Y198.84 E19.59216
G1 X54.27 Y198.274 E19.63422
G1 X53.517 Y197.549 E19.6829
G1 X52.88 Y196.813 E19.72822
G1 X52.35 Y196.082 E19.77026
G1 X51.814 Y195.185 E19.81892
G1 X51.392 Y194.307 E19.86428
G1 X51.05 Y193.395 E19.90964
G1 X50.79 Y192.457 E19.95496
G1 X50.612 Y191.488 E20.00084
G1 X50.514 Y190.309 E20.05592
G1 X50.5 Y189.658 E20.08624
G1 X50.501 Y45.525 E26.79768
G1 X50.512 Y44.825 E26.83028
G1 X50.57 Y43.852 E26.87567
G1 X50.716 Y42.889 E26.92102
G1 X50.946 Y41.943 E26.96635
G1 X51.259 Y41.02 E27.01174
G1 X51.651 Y40.13 E27.05702
G1 X52.121 Y39.277 E27.10237
G1 X52.664 Y38.469 E27.1477
G0 F6000 X52.976 Y38.72
G1 F1200 X53.543 Y38.016 E27.18979
G1 X54.218 Y37.315 E27.23511
G1 X54.927 Y36.7 E27.27881
G1 X55.659 Y36.17 E27.32089
G1 X56.495 Y35.671 E27.36622
G1 X57.34 Y35.264 E27.4099
G1 X58.219 Y34.933 E27.45363
G1 X59.122 Y34.682 E27.49728
G1 X60.05 Y34.51 E27.54122
G1 X61.189 Y34.414 E27.59445
G1 X61.821 Y34.4 E27.62388
G1 X172.798 Y34.4 E32.79144
G1 X173.66 Y34.412 E32.83158
G1 X174.597 Y34.468 E32.87529
G1 X175.525 Y34.607 E32.91898
G1 X176.438 Y34.828 E32.96272
G1 X177.294 Y35.116 E33.00478
G1 X178.186 Y35.506 E33.05011
G1 X179.007 Y35.959 E33.09377
G1 X179.758 Y36.461 E33.13583
G1 X180.517 Y37.073 E33.18123
G1 X181.191 Y37.726 E33.22493
G1 X181.805 Y38.435 E33.2686
G1 X182.355 Y39.196 E33.31233
G1 X182.817 Y39.972 E33.35438
G1 X183.24 Y40.849 E33.39972
G1 X183.569 Y41.727 E33.44338
G1 X183.82 Y42.632 E33.48711
G1 X183.991 Y43.559 E33.531
G1 X184.086 Y44.689 E33.58381
G1 X184.1 Y45.33 E33.61366
G1 X184.099 Y189.395 E40.32193
G1 X184.089 Y190.14 E40.35662
G1 X184.035 Y191.077 E40.40033
G1 X183.897 Y192.006 E40.44406
G1 X183.678 Y192.918 E40.48773
G1 X183.38 Y193.808 E40.53144
G1 X183.003 Y194.668 E40.57516
G1 X182.553 Y195.49 E40.6188
G1 X182.031 Y196.271 E40.66254
G1 X181.442 Y197.001 E40.70621
G1 X180.817 Y197.652 E40.74824
G1 X180.082 Y198.293 E40.79365
G1 X179.322 Y198.843 E40.83733
G1 X178.516 Y199.324 E40.88104
G1 X177.671 Y199.732 E40.92473
G1 X176.793 Y200.063 E40.96842
G1 X175.889 Y200.316 E41.01213
G1 X174.962 Y200.488 E41.05604
G1 X173.811 Y200.586 E41.10983
G1 X173.17 Y200.6 E41.13968
G1 X62.07 Y200.599 E46.31296
G1 X61.354 Y200.589 E46.3463
G1 X60.418 Y200.535 E46.38996
G1 X59.489 Y200.396 E46.4337
G1 X58.577 Y200.177 E46.47737
G1 X57.687 Y199.878 E46.52109
G1 X56.828 Y199.501 E46.56477
G1 X56.005 Y199.05 E46.60847
G1 X55.225 Y198.528 E46.65218
G1 X54.521 Y197.962 E46.69424
G1 X53.819 Y197.287 E46.73959
G1 X53.204 Y196.578 E46.78329
G1 X52.674 Y195.847 E46.82533
G1 X52.174 Y195.011 E46.87069
G1 X51.766 Y194.166 E46.91439
G1 X51.435 Y193.288 E46.95808
G1 X51.183 Y192.384 E47.00178
G1 X51.011 Y191.455 E47.04577
G1 X50.913 Y190.276 E47.10086
G1 X50.9 Y189.658 E47.12964
G1 X50.901 Y45.531 E53.8408
G1 X50.911 Y44.848 E53.8726
G1 X50.966 Y43.911 E53.91631
G1 X51.105 Y42.983 E53.96
G1 X51.325 Y42.071 E54.00369
G1 X51.625 Y41.181 E54.04742
G1 X52.002 Y40.322 E54.0911
G1 X52.453 Y39.5 E54.13476
G1 X52.976 Y38.72 E54.17849
G0 F6000 X53.288 Y38.971
G1 F1200 X53.855 Y38.267 E54.22058
G1 X54.481 Y37.617 E54.2626
G1 X55.162 Y37.024 E54.30465
G1 X55.894 Y36.494 E54.34673
G1 X56.669 Y36.031 E54.38877
G1 X57.482 Y35.638 E54.43082
G1 X58.327 Y35.318 E54.47289
G1 X59.196 Y35.075 E54.51491
G1 X60.084 Y34.909 E54.55697
G1 X61.223 Y34.813 E54.6102
G1 X61.83 Y34.8 E54.63847
G1 X172.793 Y34.8 E59.80537
G1 X173.637 Y34.811 E59.84467
G1 X174.539 Y34.864 E59.88675
G1 X175.432 Y34.996 E59.92878
G1 X176.31 Y35.207 E59.97083
G1 X177.166 Y35.495 E60.01288
G1 X177.993 Y35.857 E60.05492
G1 X178.785 Y36.292 E60.09699
G1 X179.536 Y36.794 E60.13906
G1 X180.239 Y37.361 E60.18111
G1 X180.889 Y37.988 E60.22316
G1 X181.481 Y38.67 E60.26522
G1 X182.011 Y39.401 E60.30726
G1 X182.473 Y40.177 E60.34931
G1 X182.866 Y40.99 E60.39136
G1 X183.184 Y41.835 E60.4334
G1 X183.427 Y42.705 E60.47546
G1 X183.592 Y43.593 E60.51752
G1 X183.687 Y44.723 E60.57032
G1 X183.7 Y45.33 E60.59859
G1 X183.699 Y189.39 E67.30663
G1 X183.69 Y190.117 E67.34049
G1 X183.639 Y191.019 E67.38255
G1 X183.508 Y191.913 E67.42463
G1 X183.299 Y192.791 E67.46665
G1 X183.013 Y193.648 E67.50872
G1 X182.652 Y194.476 E67.55078
G1 X182.22 Y195.268 E67.59279
G1 X181.719 Y196.02 E67.63486
G1 X181.153 Y196.724 E67.67693
G1 X180.528 Y197.375 E67.71895
G1 X179.847 Y197.969 E67.76103
G1 X179.116 Y198.5 E67.8031
G1 X178.342 Y198.964 E67.84512
G1 X177.529 Y199.358 E67.88719
G1 X176.685 Y199.678 E67.92922
G1 X175.815 Y199.923 E67.9713
G1 X174.928 Y200.089 E68.01332
G1 X173.777 Y200.187 E68.06711
G1 X173.17 Y200.2 E68.09538
G1 X62.075 Y200.199 E73.26843
G1 X61.377 Y200.19 E73.30094
G1 X60.476 Y200.139 E73.34296
G1 X59.582 Y200.007 E73.38504
G1 X58.704 Y199.798 E73.42706
G1 X57.847 Y199.511 E73.46915
G1 X57.02 Y199.15 E73.51116
G1 X56.227 Y198.717 E73.55324
G1 X55.476 Y198.216 E73.59527
G1 X54.772 Y197.65 E73.63733
G1 X54.121 Y197.024 E73.67939
G1 X53.528 Y196.343 E73.72144
G1 X52.998 Y195.612 E73.76348
G1 X52.534 Y194.837 E73.80554
G1 X52.14 Y194.024 E73.84761
G1 X51.82 Y193.18 E73.88964
G1 X51.576 Y192.31 E73.93171
G1 X51.41 Y191.422 E73.97378
G1 X51.313 Y190.267 E74.02775
G1 X51.3 Y189.658 E74.05611
G1 X51.301 Y45.536 E80.76704
G1 X51.31 Y44.871 E80.79801
G1 X51.362 Y43.969 E80.84008
G1 X51.494 Y43.076 E80.88211
G1 X51.704 Y42.198 E80.92415
G1 X51.991 Y41.341 E80.96623
G1 X52.353 Y40.514 E81.00827
G1 X52.786 Y39.722 E81.0503
G1 X53.288 Y38.971 E81.09236
G1 F2700 E76.09236
G0 F6000 X61.7 Y45.2
G1 F2700 E81.09236
G1 F1200 X173.3 Y45.2 E86.28892
G1 X173.3 Y189.8 E93.0221
G1 X61.7 Y189.8 E98.21867
G1 X61.7 Y45.2 E104.95185
G0 F6000 X62.1 Y45.6
G1 F1200 X172.9 Y45.6 E110.11116
G1 X172.9 Y189.4 E116.80709
G1 X62.1 Y189.4 E121.9664
G1 X62.1 Y45.6 E128.66234
G0 F6000 X62.5 Y46
G1 F1200 X172.5 Y46 E133.7844
G1 X172.5 Y189 E140.44307
G1 X62.5 Y189 E145.56514
G1 X62.5 Y46 E152.22381
G0 F6000 X62.9 Y46.4
G1 F1200 X172.1 Y46.4 E157.30862
G1 X172.1 Y188.6 E163.93005
G1 X62.9 Y188.6 E169.01486
G1 X62.9 Y46.4 E175.63629
G0 F6000 X63.3 Y46.8
G1 F1200 X171.7 Y46.8 E180.68385
G1 X171.7 Y188.2 E187.26802
G1 X63.3 Y188.2 E192.31558
G1 X63.3 Y46.8 E198.89976
G0 F6000 X63.7 Y47.2
G1 F1200 X171.3 Y47.2 E203.91006
G1 X171.3 Y187.8 E210.45699
G1 X63.7 Y187.8 E215.4673
G1 X63.7 Y47.2 E222.01422
G0 F6000 X64.1 Y47.6
G1 F1200 X170.9 Y47.6 E226.98728
G1 X170.9 Y187.4 E233.49695
G1 X64.1 Y187.4 E238.47001
G1 X64.1 Y47.6 E244.97968
G0 F6000 X64.5 Y48
G1 F1200 X170.5 Y48 E249.91548
G1 X170.5 Y187 E256.38791
G1 X64.5 Y187 E261.32371
G1 X64.5 Y48 E267.79613
G0 F6000 X64.9 Y48.4
G1 F1200 X170.1 Y48.4 E272.69468
G1 X170.1 Y186.6 E279.12986
G1 X64.9 Y186.6 E284.02841
G1 X64.9 Y48.4 E290.46358
G0 F6000 X65.3 Y48.8
G1 F1200 X169.7 Y48.8 E295.32488
G1 X169.7 Y186.2 E301.7228
G1 X65.3 Y186.2 E306.5841
G1 X65.3 Y48.8 E312.98202
G1 F2700 E307.98202
G0 F6000 X90.591 Y59.295
G1 F2700 E312.98202
G1 F1200 X90.212 Y60.211 E313.02818
G1 X90.038 Y60.734 E313.05385
G1 X89.956 Y61.167 E313.07437
G1 X89.826 Y62.153 E313.12068
G1 X89.793 Y62.703 E313.14633
G1 X89.826 Y63.147 E313.16706
G1 X89.956 Y64.133 E313.21337
G1 X90.067 Y64.672 E313.239
G1 X90.212 Y65.089 E313.25956
G1 X90.591 Y66.005 E313.30572
G1 X90.838 Y66.497 E313.33135
G1 X91.087 Y66.865 E313.35204
G1 X91.693 Y67.655 E313.3984
G1 X92.059 Y68.067 E313.42406
G1 X92.395 Y68.357 E313.44473
G1 X93.185 Y68.963 E313.49109
G1 X93.646 Y69.266 E313.51678
G1 X94.045 Y69.459 E313.53742
G1 X94.961 Y69.838 E313.58358
G1 X95.484 Y70.012 E313.60924
G1 X95.917 Y70.094 E313.62976
G1 X96.903 Y70.224 E313.67607
G1 X97.453 Y70.257 E313.70173
G1 X97.897 Y70.224 E313.72246
G1 X98.883 Y70.094 E313.76877
G1 X99.422 Y69.983 E313.7944
G1 X99.839 Y69.838 E313.81495
G1 X100.755 Y69.459 E313.86111
G1 X101.247 Y69.212 E313.88675
G1 X101.615 Y68.963 E313.90744
G1 X102.405 Y68.357 E313.9538
G1 X102.817 Y67.991 E313.97946
G1 X103.107 Y67.655 E314.00013
G1 X103.713 Y66.865 E314.04649
G1 X104.016 Y66.404 E314.07218
G1 X104.209 Y66.005 E314.09282
G1 X104.588 Y65.089 E314.13898
G1 X104.762 Y64.566 E314.16464
G1 X104.844 Y64.133 E314.18516
G1 X104.974 Y63.147 E314.23147
G1 X105.007 Y62.597 E314.25713
G1 X104.974 Y62.153 E314.27786
G1 X104.844 Y61.167 E314.32417
G1 X104.733 Y60.628 E314.34979
G1 X104.588 Y60.211 E314.37035
G1 X104.209 Y59.295 E314.41651
G1 X103.962 Y58.803 E314.44215
G1 X103.713 Y58.435 E314.46284
G1 X103.107 Y57.645 E314.5092
G1 X102.741 Y57.233 E314.53486
G1 X102.405 Y56.943 E314.55553
G1 X101.615 Y56.337 E314.60189
G1 X101.154 Y56.034 E314.62758
G1 X100.755 Y55.841 E314.64821
G1 X99.839 Y55.462 E314.69437
G1 X99.316 Y55.288 E314.72004
G1 X98.883 Y55.206 E314.74056
G1 X97.897 Y55.076 E314.78687
G1 X97.347 Y55.043 E314.81253
G1 X96.903 Y55.076 E314.83326
G1 X95.917 Y55.206 E314.87957
G1 X95.378 Y55.317 E314.90519
G1 X94.961 Y55.462 E314.92575
G1 X94.045 Y55.841 E314.97191
G1 X93.553 Y56.088 E314.99754
G1 X93.185 Y56.337 E315.01823
G1 X92.395 Y56.943 E315.06459
G1 X91.983 Y57.309 E315.09026
G1 X91.693 Y57.645 E315.11092
G1 X91.087 Y58.435 E315.15728
G1 X90.784 Y58.896 E315.18297
G1 X90.591 Y59.295 E315.20361
G0 F6000 X90.96 Y59.448
G1 F1200 X90.581 Y60.364 E315.24977
G1 X90.42 Y60.86 E315.27405
G1 X90.352 Y61.22 E315.29111
G1 X90.222 Y62.206 E315.33742
G1 X90.194 Y62.726 E315.36167
G1 X90.222 Y63.094 E315.37886
G1 X90.352 Y64.08 E315.42517
G1 X90.46 Y64.59 E315.44944
G1 X90.581 Y64.936 E315.46651
G1 X90.96 Y65.852 E315.51267
G1 X91.196 Y66.317 E315.53695
G1 X91.404 Y66.621 E315.5541
G1 X92.01 Y67.411 E315.60046
G1 X92.358 Y67.799 E315.62473
G1 X92.639 Y68.04 E315.64197
G1 X93.429 Y68.646 E315.68833
G1 X93.865 Y68.93 E315.71256
G1 X94.198 Y69.09 E315.72976
G1 X95.114 Y69.469 E315.77592
G1 X95.61 Y69.63 E315.8002
G1 X95.97 Y69.698 E315.81726
G1 X96.956 Y69.828 E315.86357
G1 X97.476 Y69.856 E315.88782
G1 X97.844 Y69.828 E315.90501
G1 X98.83 Y69.698 E315.95132
G1 X99.34 Y69.59 E315.97559
G1 X99.686 Y69.469 E315.99266
G1 X100.602 Y69.09 E316.03882
G1 X101.067 Y68.854 E316.0631
G1 X101.371 Y68.646 E316.08025
G1 X102.161 Y68.04 E316.12661
G1 X102.549 Y67.692 E316.15088
G1 X102.79 Y67.411 E316.16812
G1 X103.396 Y66.621 E316.21448
G1 X103.68 Y66.185 E316.23871
G1 X103.84 Y65.852 E316.25592
G1 X104.219 Y64.936 E316.30207
G1 X104.38 Y64.44 E316.32636
G1 X104.448 Y64.08 E316.34342
G1 X104.578 Y63.094 E316.38973
G1 X104.606 Y62.574 E316.41397
G1 X104.578 Y62.206 E316.43116
G1 X104.448 Y61.22 E316.47747
G1 X104.34 Y60.71 E316.50174
G1 X104.219 Y60.364 E316.51881
G1 X103.84 Y59.448 E316.56497
G1 X103.604 Y58.983 E316.58925
G1 X103.396 Y58.679 E316.6064
G1 X102.79 Y57.889 E316.65277
G1 X102.442 Y57.501 E316.67704
G1 X102.161 Y57.26 E316.69427
G1 X101.371 Y56.654 E316.74064
G1 X100.935 Y56.37 E316.76486
G1 X100.602 Y56.21 E316.78207
G1 X99.686 Y55.831 E316.82823
G1 X99.19 Y55.67 E316.85251
G1 X98.83 Y55.602 E316.86957
G1 X97.844 Y55.472 E316.91588
G1 X97.324 Y55.444 E316.94013
G1 X96.956 Y55.472 E316.95731
G1 X95.97 Y55.602 E317.00362
G1 X95.46 Y55.71 E317.0279
G1 X95.114 Y55.831 E317.04496
G1 X94.198 Y56.21 E317.09112
G1 X93.733 Y56.446 E317.1154
G1 X93.429 Y56.654 E317.13256
G1 X92.639 Y57.26 E317.17892
G1 X92.251 Y57.608 E317.20319
G1 X92.01 Y57.889 E317.22043
G1 X91.404 Y58.679 E317.26679
G1 X91.12 Y59.115 E317.29102
G1 X90.96 Y59.448 E317.30822
G0 F6000 X91.33 Y59.601
G1 F1200 X90.951 Y60.517 E317.35438
G1 X90.801 Y60.983 E317.37717
G1 X90.749 Y61.272 E317.39085
G1 X90.619 Y62.258 E317.43716
G1 X90.595 Y62.747 E317.45995
G1 X90.619 Y63.042 E317.47374
G1 X90.749 Y64.028 E317.52005
G1 X90.852 Y64.507 E317.54286
G1 X90.951 Y64.783 E317.55651
G1 X91.33 Y65.699 E317.60267
G1 X91.553 Y66.134 E317.62544
G1 X91.722 Y66.378 E317.63926
G1 X92.328 Y67.168 E317.68562
G1 X92.656 Y67.531 E317.7084
G1 X92.882 Y67.722 E317.72218
G1 X93.672 Y68.328 E317.76854
G1 X94.083 Y68.594 E317.79134
G1 X94.351 Y68.72 E317.80513
G1 X95.267 Y69.099 E317.85128
G1 X95.733 Y69.249 E317.87408
G1 X96.022 Y69.301 E317.88775
G1 X97.008 Y69.431 E317.93406
G1 X97.497 Y69.455 E317.95686
G1 X97.792 Y69.431 E317.97064
G1 X98.778 Y69.301 E318.01695
G1 X99.257 Y69.198 E318.03977
G1 X99.533 Y69.099 E318.05342
G1 X100.449 Y68.72 E318.09958
G1 X100.884 Y68.497 E318.12234
G1 X101.128 Y68.328 E318.13616
G1 X101.918 Y67.722 E318.18252
G1 X102.281 Y67.394 E318.2053
G1 X102.472 Y67.168 E318.21908
G1 X103.078 Y66.378 E318.26544
G1 X103.344 Y65.967 E318.28824
G1 X103.47 Y65.699 E318.30203
G1 X103.849 Y64.783 E318.34819
G1 X103.999 Y64.317 E318.37099
G1 X104.051 Y64.028 E318.38466
G1 X104.181 Y63.042 E318.43097
G1 X104.205 Y62.553 E318.45377
G1 X104.181 Y62.258 E318.46755
G1 X104.051 Y61.272 E318.51386
G1 X103.948 Y60.793 E318.53667
G1 X103.849 Y60.517 E318.55032
G1 X103.47 Y59.601 E318.59648
G1 X103.247 Y59.166 E318.61925
G1 X103.078 Y58.922 E318.63307
G1 X102.472 Y58.132 E318.67943
G1 X102.144 Y57.769 E318.70221
G1 X101.918 Y57.578 E318.71599
G1 X101.128 Y56.972 E318.76235
G1 X100.717 Y56.706 E318.78515
