;FLAVOR:Marlin
;TIME:16794
;Filament used: 21.1445m
;Layer height: 0.28
;MINX:50.5
;MINY:34
;MINZ:0.28
;MAXX:184.5
;MAXY:201
;MAXZ:5.88
;TARGET_MACHINE.NAME:Creality Ender-3
;Generated with Cura_SteamEngine 5.10.0
M140 S65
M105
M190 S65
M104 S210
M105
M109 S210
; Ender 3 Custom Start G-code
G92 E0 ; Reset Extruder
G28 ; Home all axes
G1 Z2.0 F3000 ; Move Z Axis up little to prevent scratching of Heat Bed
G1 X0.1 Y20 Z0.3 F5000.0 ; Move to start position
G1 X0.1 Y200.0 Z0.3 F1500.0 E15 ; Draw the first line
G1 X0.4 Y200.0 Z0.3 F5000.0 ; Move to side a little
G1 X0.4 Y20 Z0.3 F1500.0 E30 ; Draw the second line
G92 E0 ; Reset Extruder
G1 Z2.0 F3000 ; Move Z Axis up little to prevent scratching of Heat Bed
G1 X5 Y20 Z0.3 F5000.0 ; Move over to prevent blob squish
M82 ;absolute extrusion mode
G92 E0
G92 E0
G1 F2700 E-5
;LAYER_COUNT:21
;LAYER:0
M107
G0 F6000 X52.664 Y38.469 Z0.28
;TYPE:SKIRT
G1 F2700 E0
G1 F1200 X53.231 Y37.765 E0.04209
G1 X53.956 Y37.013 E0.09073
G1 X54.692 Y36.376 E0.13606
G1 X55.424 Y35.846 E0.17814
G1 X56.321 Y35.311 E0.22677
G1 X57.199 Y34.89 E0.27211
G1 X58.112 Y34.548 E0.31751
G1 X59.049 Y34.289 E0.36277
G1 X60.016 Y34.111 E0.40856
G1 X61.155 Y34.015 E0.46178
G1 X61.812 Y34 E0.49238
G1 X172.804 Y34 E5.66064
G1 X173.684 Y34.013 E5.70162
G1 X174.656 Y34.072 E5.74696
G1 X175.619 Y34.218 E5.79231
G1 X176.566 Y34.449 E5.8377
G1 X177.454 Y34.749 E5.88135
G1 X178.346 Y35.139 E5.92668
G1 X179.229 Y35.626 E5.97364
G1 X179.98 Y36.128 E6.0157
G1 X180.795 Y36.786 E6.06447
G1 X181.493 Y37.464 E6.10978
G1 X182.129 Y38.201 E6.15511
G1 X182.699 Y38.991 E6.20047
G1 X183.161 Y39.767 E6.24253
G1 X183.615 Y40.709 E6.29122
G1 X183.944 Y41.587 E6.33488
G1 X184.213 Y42.559 E6.38184
G1 X184.39 Y43.525 E6.42757
G1 X184.485 Y44.655 E6.48037
G1 X184.5 Y45.33 E6.51181
G1 X184.499 Y189.4 E13.22031
G1 X184.488 Y190.163 E13.25585
G1 X184.431 Y191.136 E13.30123
G1 X184.286 Y192.099 E13.34658
G1 X184.057 Y193.045 E13.3919
G1 X183.746 Y193.969 E13.4373
G1 X183.354 Y194.86 E13.48262
G1 X182.886 Y195.712 E13.52789
G1 X182.364 Y196.493 E13.57163
G1 X181.731 Y197.278 E13.61859
G1 X181.106 Y197.929 E13.66061
G1 X180.317 Y198.617 E13.70935
G1 X179.557 Y199.167 E13.75304
G1 X178.69 Y199.684 E13.80004
G1 X177.812 Y200.106 E13.8454
G1 X176.901 Y200.448 E13.89071
G1 X175.962 Y200.709 E13.93609
G1 X174.996 Y200.887 E13.98183
G1 X173.845 Y200.985 E14.03562
G1 X173.17 Y201 E14.06706
G1 X62.064 Y200.999 E19.24062
G1 X61.331 Y200.988 E19.27476
G1 X60.359 Y200.931 E19.32009
G1 X59.396 Y200.785 E19.36545
G1 X58.45 Y200.556 E19.41077
G1 X57.526 Y200.244 E19.45618
G1 X56.636 Y199.852 E19.50146
G1 X55.813 Y199.401 E19.54516
G1 X54.974 Y198.84 E19.59216
G1 X54.27 Y198.274 E19.63422
G1 X53.517 Y197.549 E19.6829
G1 X52.88 Y196.813 E19.72822
G1 X52.35 Y196.082 E19.77026
G1 X51.814 Y195.185 E19.81892
G1 X51.392 Y194.307 E19.86428
G1 X51.05 Y193.395 E19.90964
G1 X50.79 Y192.457 E19.95496
G1 X50.612 Y191.488 E20.00084
G1 X50.514 Y190.309 E20.05592
G1 X50.5 Y189.658 E20.08624
G1 X50.501 Y45.525 E26.79768
G1 X50.512 Y44.825 E26.83028
G1 X50.57 Y43.852 E26.87567
G1 X50.716 Y42.889 E26.92102
G1 X50.946 Y41.943 E26.96635
G1 X51.259 Y41.02 E27.01174
G1 X51.651 Y40.13 E27.05702
G1 X52.121 Y39.277 E27.10237
G1 X52.664 Y38.469 E27.1477
G0 F6000 X52.976 Y38.72
G1 F1200 X53.543 Y38.016 E27.18979
G1 X54.218 Y37.315 E27.23511
G1 X54.927 Y36.7 E27.27881
G1 X55.659 Y36.17 E27.32089
G1 X56.495 Y35.671 E27.36622
G1 X57.34 Y35.264 E27.4099
G1 X58.219 Y34.933 E27.45363
G1 X59.122 Y34.682 E27.49728
G1 X60.05 Y34.51 E27.54122
G1 X61.189 Y34.414 E27.59445
G1 X61.821 Y34.4 E27.62388
G1 X172.798 Y34.4 E32.79144
G1 X173.66 Y34.412 E32.83158
G1 X174.597 Y34.468 E32.87529
G1 X175.525 Y34.607 E32.91898
G1 X176.438 Y34.828 E32.96272
G1 X177.294 Y35.116 E33.00478
G1 X178.186 Y35.506 E33.05011
G1 X179.007 Y35.959 E33.09377
G1 X179.758 Y36.461 E33.13583
G1 X180.517 Y37.073 E33.18123
G1 X181.191 Y37.726 E33.22493
G1 X181.805 Y38.435 E33.2686
G1 X182.355 Y39.196 E33.31233
G1 X182.817 Y39.972 E33.35438
G1 X183.24 Y40.849 E33.39972
G1 X183.569 Y41.727 E33.44338
G1 X183.82 Y42.632 E33.48711
G1 X183.991 Y43.559 E33.531
G1 X184.086 Y44.689 E33.58381
G1 X184.1 Y45.33 E33.61366
G1 X184.099 Y189.395 E40.32193
G1 X184.089 Y190.14 E40.35662
G1 X184.035 Y191.077 E40.40033
G1 X183.897 Y192.006 E40.44406
G1 X183.678 Y192.918 E40.48773
G1 X183.38 Y193.808 E40.53144
G1 X183.003 Y194.668 E40.57516
G1 X182.553 Y195.49 E40.6188
G1 X182.031 Y196.271 E40.66254
G1 X181.442 Y197.001 E40.70621
G1 X180.817 Y197.652 E40.74824
G1 X180.082 Y198.293 E40.79365
G1 X179.322 Y198.843 E40.83733
G1 X178.516 Y199.324 E40.88104
G1 X177.671 Y199.732 E40.92473
G1 X176.793 Y200.063 E40.96842
G1 X175.889 Y200.316 E41.01213
G1 X174.962 Y200.488 E41.05604
G1 X173.811 Y200.586 E41.10983
G1 X173.17 Y200.6 E41.13968
G1 X62.07 Y200.599 E46.31296
G1 X61.354 Y200.589 E46.3463
G1 X60.418 Y200.535 E46.38996
G1 X59.489 Y200.396 E46.4337
G1 X58.577 Y200.177 E46.47737
G1 X57.687 Y199.878 E46.52109
G1 X56.828 Y199.501 E46.56477
G1 X56.005 Y199.05 E46.60847
G1 X55.225 Y198.528 E46.65218
G1 X54.521 Y197.962 E46.69424
G1 X53.819 Y197.287 E46.73959
G1 X53.204 Y196.578 E46.78329
G1 X52.674 Y195.847 E46.82533
G1 X52.174 Y195.011 E46.87069
G1 X51.766 Y194.166 E46.91439
G1 X51.435 Y193.288 E46.95808
G1 X51.183 Y192.384 E47.00178
G1 X51.011 Y191.455 E47.04577
G1 X50.913 Y190.276 E47.10086
G1 X50.9 Y189.658 E47.12964
G1 X50.901 Y45.531 E53.8408
G1 X50.911 Y44.848 E53.8726
G1 X50.966 Y43.911 E53.91631
G1 X51.105 Y42.983 E53.96
G1 X51.325 Y42.071 E54.00369
G1 X51.625 Y41.181 E54.04742
G1 X52.002 Y40.322 E54.0911
G1 X52.453 Y39.5 E54.13476
G1 X52.976 Y38.72 E54.17849
G0 F6000 X53.288 Y38.971
G1 F1200 X53.855 Y38.267 E54.22058
G1 X54.481 Y37.617 E54.2626
G1 X55.162 Y37.024 E54.30465
G1 X55.894 Y36.494 E54.34673
G1 X56.669 Y36.031 E54.38877
G1 X57.482 Y35.638 E54.43082
G1 X58.327 Y35.318 E54.47289
G1 X59.196 Y35.075 E54.51491
G1 X60.084 Y34.909 E54.55697
G1 X61.223 Y34.813 E54.6102
G1 X61.83 Y34.8 E54.63847
G1 X172.793 Y34.8 E59.80537
G1 X173.637 Y34.811 E59.84467
G1 X174.539 Y34.864 E59.88675
G1 X175.432 Y34.996 E59.92878
G1 X176.31 Y35.207 E59.97083
G1 X177.166 Y35.495 E60.01288
G1 X177.993 Y35.857 E60.05492
G1 X178.785 Y36.292 E60.09699
G1 X179.536 Y36.794 E60.13906
G1 X180.239 Y37.361 E60.18111
G1 X180.889 Y37.988 E60.22316
G1 X181.481 Y38.67 E60.26522
G1 X182.011 Y39.401 E60.30726
G1 X182.473 Y40.177 E60.34931
G1 X182.866 Y40.99 E60.39136
G1 X183.184 Y41.835 E60.4334
G1 X183.427 Y42.705 E60.47546
G1 X183.592 Y43.593 E60.51752
G1 X183.687 Y44.723 E60.57032
G1 X183.7 Y45.33 E60.59859
G1 X183.699 Y189.39 E67.30663
G1 X183.69 Y190.117 E67.34049
G1 X183.639 Y191.019 E67.38255
G1 X183.508 Y191.913 E67.42463
G1 X183.299 Y192.791 E67.46665
G1 X183.013 Y193.648 E67.50872
G1 X182.652 Y194.476 E67.55078
G1 X182.22 Y195.268 E67.59279
G1 X181.719 Y196.02 E67.63486
G1 X181.153 Y196.724 E67.67693
G1 X180.528 Y197.375 E67.71895
G1 X179.847 Y197.969 E67.76103
G1 X179.116 Y198.5 E67.8031
G1 X178.342 Y198.964 E67.84512
G1 X177.529 Y199.358 E67.88719
G1 X176.685 Y199.678 E67.92922
G1 X175.815 Y199.923 E67.9713
G1 X174.928 Y200.089 E68.01332
G1 X173.777 Y200.187 E68.06711
G1 X173.17 Y200.2 E68.09538
G1 X62.075 Y200.199 E73.26843
G1 X61.377 Y200.19 E73.30094
G1 X60.476 Y200.139 E73.34296
G1 X59.582 Y200.007 E73.38504
G1 X58.704 Y199.798 E73.42706
G1 X57.847 Y199.511 E73.46915
G1 X57.02 Y199.15 E73.51116
G1 X56.227 Y198.717 E73.55324
G1 X55.476 Y198.216 E73.59527
G1 X54.772 Y197.65 E73.63733
G1 X54.121 Y197.024 E73.67939
G1 X53.528 Y196.343 E73.72144
G1 X52.998 Y195.612 E73.76348
G1 X52.534 Y194.837 E73.80554
G1 X52.14 Y194.024 E73.84761
G1 X51.82 Y193.18 E73.88964
G1 X51.576 Y192.31 E73.93171
G1 X51.41 Y191.422 E73.97378
G1 X51.313 Y190.267 E74.02775
G1 X51.3 Y189.658 E74.05611
G1 X51.301 Y45.536 E80.76704
G1 X51.31 Y44.871 E80.79801
G1 X51.362 Y43.969 E80.84008
G1 X51.494 Y43.076 E80.88211
G1 X51.704 Y42.198 E80.92415
G1 X51.991 Y41.341 E80.96623
G1 X52.353 Y40.514 E81.00827
G1 X52.786 Y39.722 E81.0503
G1 X53.288 Y38.971 E81.09236
G1 F2700 E76.09236
G0 F6000 X61.7 Y45.2
G1 F2700 E81.09236
G1 F1200 X173.3 Y45.2 E86.28892
G1 X173.3 Y189.8 E93.0221
G1 X61.7 Y189.8 E98.21867
G1 X61.7 Y45.2 E104.95185
G0 F6000 X62.1 Y45.6
G1 F1200 X172.9 Y45.6 E110.11116
G1 X172.9 Y189.4 E116.80709
G1 X62.1 Y189.4 E121.9664
G1 X62.1 Y45.6 E128.66234
G0 F6000 X62.5 Y46
G1 F1200 X172.5 Y46 E133.7844
G1 X172.5 Y189 E140.44307
G1 X62.5 Y189 E145.56514
G1 X62.5 Y46 E152.22381
G0 F6000 X62.9 Y46.4
G1 F1200 X172.1 Y46.4 E157.30862
G1 X172.1 Y188.6 E163.93005
G1 X62.9 Y188.6 E169.01486
G1 X62.9 Y46.4 E175.63629
G0 F6000 X63.3 Y46.8
G1 F1200 X171.7 Y46.8 E180.68385
G1 X171.7 Y188.2 E187.26802
G1 X63.3 Y188.2 E192.31558
G1 X63.3 Y46.8 E198.89976
G0 F6000 X63.7 Y47.2
G1 F1200 X171.3 Y47.2 E203.91006
G1 X171.3 Y187.8 E210.45699
G1 X63.7 Y187.8 E215.4673
G1 X63.7 Y47.2 E222.01422
G0 F6000 X64.1 Y47.6
G1 F1200 X170.9 Y47.6 E226.98728
G1 X170.9 Y187.4 E233.49695
G1 X64.1 Y187.4 E238.47001
G1 X64.1 Y47.6 E244.97968
G0 F6000 X64.5 Y48
G1 F1200 X170.5 Y48 E249.91548
G1 X170.5 Y187 E256.38791
G1 X64.5 Y187 E261.32371
G1 X64.5 Y48 E267.79613
G0 F6000 X64.9 Y48.4
G1 F1200 X170.1 Y48.4 E272.69468
G1 X170.1 Y186.6 E279.12986
G1 X64.9 Y186.6 E284.02841
G1 X64.9 Y48.4 E290.46358
G0 F6000 X65.3 Y48.8
G1 F1200 X169.7 Y48.8 E295.32488
G1 X169.7 Y186.2 E301.7228
G1 X65.3 Y186.2 E306.5841
G1 X65.3 Y48.8 E312.98202
G1 F2700 E307.98202
G0 F6000 X108.344 Y102.07
G1 F2700 E312.98202
G1 F1200 X107.932 Y102.436 E313.00768
G1 X107.637 Y102.778 E313.02871
G1 X107.032 Y103.569 E313.07508
G1 X106.73 Y104.03 E313.10075
G1 X106.54 Y104.422 E313.12103
G1 X106.161 Y105.336 E313.1671
G1 X105.987 Y105.859 E313.19277
G1 X105.904 Y106.296 E313.21348
G1 X105.774 Y107.283 E313.25984
G1 X105.741 Y107.833 E313.28549
G1 X105.774 Y108.276 E313.30618
G1 X105.904 Y109.262 E313.35249
G1 X106.015 Y109.801 E313.37811
G1 X106.16 Y110.219 E313.39871
G1 X106.539 Y111.134 E313.44483
G1 X106.786 Y111.627 E313.47051
G1 X107.032 Y111.989 E313.49089
G1 X107.637 Y112.78 E313.53726
G1 X108.002 Y113.192 E313.56289
G1 X108.344 Y113.488 E313.58395
G1 X109.046 Y114.026 E313.62513
G1 X108.299 Y114.599 E313.66897
G1 X107.887 Y114.966 E313.69466
G1 X107.593 Y115.306 E313.71559
G1 X106.988 Y116.097 E313.76196
G1 X106.686 Y116.558 E313.78763
G1 X106.496 Y116.95 E313.80791
G1 X106.117 Y117.864 E313.85398
G1 X105.943 Y118.387 E313.87965
G1 X105.86 Y118.824 E313.90036
G1 X105.73 Y119.811 E313.94672
G1 X105.697 Y120.361 E313.97237
G1 X105.73 Y120.804 E313.99306
G1 X105.86 Y121.79 E314.03937
G1 X105.971 Y122.329 E314.06499
G1 X106.116 Y122.747 E314.08559
G1 X106.495 Y123.662 E314.13171
G1 X106.742 Y124.155 E314.15739
G1 X106.988 Y124.517 E314.17777
G1 X107.593 Y125.308 E314.22414
G1 X107.958 Y125.72 E314.24977
G1 X108.302 Y126.017 E314.27093
G1 X109.094 Y126.623 E314.31737
G1 X109.555 Y126.925 E314.34303
G1 X109.951 Y127.117 E314.36352
G1 X110.865 Y127.495 E314.40958
G1 X111.388 Y127.668 E314.43523
G1 X111.817 Y127.75 E314.45557
G1 X112.804 Y127.881 E314.50193
G1 X113.354 Y127.914 E314.52758
G1 X113.806 Y127.881 E314.54869
G1 X114.788 Y127.75 E314.59482
G1 X115.328 Y127.637 E314.62051
G1 X115.734 Y127.496 E314.64052
G1 X116.656 Y127.116 E314.68696
G1 X117.149 Y126.87 E314.71261
G1 X117.52 Y126.619 E314.73347
G1 X118.308 Y126.015 E314.7797
G1 X118.586 Y125.768 E314.79702
G1 X119.134 Y126.482 E314.83893
G1 X119.5 Y126.894 E314.86459
G1 X119.837 Y127.185 E314.88532
G1 X120.625 Y127.789 E314.93155
G1 X121.086 Y128.092 E314.95724
G1 X121.489 Y128.286 E314.97807
G1 X122.411 Y128.666 E315.0245
G1 X122.934 Y128.839 E315.05015
G1 X123.357 Y128.92 E315.07021
G1 X124.339 Y129.051 E315.11634
G1 X124.889 Y129.084 E315.14199
G1 X125.343 Y129.051 E315.16319
G1 X126.325 Y128.92 E315.20932
G1 X126.865 Y128.807 E315.23501
G1 X127.271 Y128.666 E315.25502
G1 X128.193 Y128.286 E315.30146
G1 X128.686 Y128.04 E315.32711
G1 X129.057 Y127.789 E315.34797
G1 X129.845 Y127.185 E315.3942
G1 X130.257 Y126.819 E315.41986
G1 X130.548 Y126.482 E315.4406
G1 X131.154 Y125.692 E315.48696
G1 X131.457 Y125.231 E315.51265
G1 X131.65 Y124.832 E315.53328
G1 X132.029 Y123.916 E315.57944
G1 X132.203 Y123.393 E315.60511
G1 X132.285 Y122.96 E315.62563
G1 X132.415 Y121.974 E315.67194
G1 X132.448 Y121.424 E315.6976
G1 X132.415 Y120.981 E315.71828
G1 X132.285 Y119.994 E315.76464
G1 X132.174 Y119.454 E315.79031
G1 X132.029 Y119.036 E315.81091
G1 X131.65 Y118.121 E315.85703
G1 X131.403 Y117.628 E315.8827
G1 X131.156 Y117.264 E315.90319
G1 X130.55 Y116.473 E315.94958
G1 X130.184 Y116.061 E315.97525
G1 X129.842 Y115.766 E315.99628
G1 X129.051 Y115.161 E316.04265
G1 X128.59 Y114.859 E316.06831
G1 X128.196 Y114.668 E316.0887
G1 X127.281 Y114.289 E316.13481
G1 X126.758 Y114.116 E316.16046
G1 X126.324 Y114.033 E316.18104
G1 X125.679 Y113.948 E316.21133
G1 X126.347 Y113.86 E316.24271
G1 X126.886 Y113.749 E316.26833
G1 X127.303 Y113.604 E316.28889
G1 X128.219 Y113.225 E316.33505
G1 X128.711 Y112.978 E316.36068
G1 X129.079 Y112.729 E316.38137
G1 X129.869 Y112.123 E316.42774
G1 X130.281 Y111.757 E316.4534
G1 X130.571 Y111.421 E316.47406
G1 X131.177 Y110.631 E316.52043
G1 X131.48 Y110.17 E316.54611
G1 X131.673 Y109.771 E316.56675
G1 X132.052 Y108.855 E316.61291
G1 X132.226 Y108.332 E316.63858
G1 X132.308 Y107.899 E316.6591
G1 X132.438 Y106.913 E316.70541
G1 X132.471 Y106.363 E316.73106
G1 X132.438 Y105.92 E316.75175
G1 X132.308 Y104.933 E316.7981
G1 X132.197 Y104.393 E316.82377
G1 X132.052 Y103.976 E316.84433
G1 X131.673 Y103.06 E316.89049
G1 X131.426 Y102.568 E316.91613
G1 X131.176 Y102.198 E316.93692
G1 X130.57 Y101.409 E316.98324
G1 X130.203 Y100.998 E317.0089
G1 X129.869 Y100.709 E317.02947
G1 X129.079 Y100.103 E317.07583
G1 X128.618 Y99.8 E317.10152
G1 X128.219 Y99.607 E317.12216
G1 X127.303 Y99.228 E317.16832
G1 X126.78 Y99.054 E317.19398
G1 X126.347 Y98.972 E317.2145
G1 X125.361 Y98.842 E317.26081
G1 X124.811 Y98.809 E317.28647
G1 X124.368 Y98.842 E317.30715
G1 X123.381 Y98.972 E317.35351
G1 X122.841 Y99.083 E317.37918
G1 X122.424 Y99.228 E317.39974
G1 X121.508 Y99.607 E317.4459
G1 X121.016 Y99.854 E317.47153
G1 X120.646 Y100.104 E317.49232
G1 X119.857 Y100.71 E317.53865
G1 X119.446 Y101.077 E317.56431
G1 X119.158 Y101.409 E317.58477
G1 X118.552 Y102.198 E317.6311
G1 X118.533 Y102.227 E317.63271
G1 X118.353 Y102.072 E317.64377
G1 X117.563 Y101.466 E317.69013
G1 X117.102 Y101.163 E317.71582
G1 X116.703 Y100.97 E317.73646
G1 X115.787 Y100.591 E317.78262
G1 X115.264 Y100.417 E317.80829
G1 X114.831 Y100.335 E317.82881
G1 X113.845 Y100.205 E317.87512
G1 X113.295 Y100.172 E317.90077
G1 X112.852 Y100.205 E317.92146
G1 X111.865 Y100.335 E317.96781
G1 X111.325 Y100.446 E317.99348
G1 X110.907 Y100.591 E318.01408
G1 X109.992 Y100.97 E318.0602
G1 X109.499 Y101.217 E318.08588
G1 X109.135 Y101.464 E318.10636
G1 X108.344 Y102.07 E318.15276
G0 F6000 X108.587 Y102.388
G1 F1200 X108.199 Y102.736 E318.17703
G1 X107.954 Y103.021 E318.19453
G1 X107.349 Y103.812 E318.2409
G1 X107.065 Y104.249 E318.26517
G1 X106.909 Y104.576 E318.28204
G1 X106.53 Y105.49 E318.32811
G1 X106.368 Y105.985 E318.35236
G1 X106.3 Y106.348 E318.36956
G1 X106.17 Y107.335 E318.41592
G1 X106.142 Y107.855 E318.44017
G1 X106.17 Y108.223 E318.45735
G1 X106.3 Y109.209 E318.50366
G1 X106.408 Y109.719 E318.52793
G1 X106.53 Y110.066 E318.54506
G1 X106.909 Y110.981 E318.59118
G1 X107.145 Y111.446 E318.61546
G1 X107.349 Y111.746 E318.63235
G1 X107.954 Y112.537 E318.67872
G1 X108.302 Y112.925 E318.70299
G1 X108.587 Y113.17 E318.72049
