;FLAVOR:Marlin
;TIME:13314
;Filament used: 14.0436m
;Layer height: 0.28
;MINX:10.415
;MINY:9.5
;MINZ:0.28
;MAXX:229.883
;MAXY:225.5
;MAXZ:8.12
;TARGET_MACHINE.NAME:Creality Ender-3
;Generated with Cura_SteamEngine 5.10.0
M140 S65
M105
M190 S65
M104 S210
M105
M109 S210
; Ender 3 Custom Start G-code
G92 E0 ; Reset Extruder
G28 ; Home all axes
G1 Z2.0 F3000 ; Move Z Axis up little to prevent scratching of Heat Bed
G1 X0.1 Y20 Z0.3 F5000.0 ; Move to start position
G1 X0.1 Y200.0 Z0.3 F1500.0 E15 ; Draw the first line
G1 X0.4 Y200.0 Z0.3 F5000.0 ; Move to side a little
G1 X0.4 Y20 Z0.3 F1500.0 E30 ; Draw the second line
G92 E0 ; Reset Extruder
G1 Z2.0 F3000 ; Move Z Axis up little to prevent scratching of Heat Bed
G1 X5 Y20 Z0.3 F5000.0 ; Move over to prevent blob squish
M82 ;absolute extrusion mode
G92 E0
G92 E0
G1 F2700 E-5
;LAYER_COUNT:29
;LAYER:0
M107
G0 F6000 X12.166 Y9.5 Z0.28
;TYPE:SKIRT
G1 F2700 E0
G1 F1200 X12.046 Y9.679 E0.01003
G1 X11.575 Y10.531 E0.05537
G1 X11.168 Y11.453 E0.10229
G1 X10.866 Y12.342 E0.14601
G1 X10.635 Y13.29 E0.19145
G1 X10.488 Y14.251 E0.23672
G1 X10.428 Y15.224 E0.28211
G1 X10.416 Y15.925 E0.31476
G1 X10.415 Y115.074 E4.93155
G1 X10.428 Y115.7 E4.9607
G1 X10.484 Y116.552 E5.00046
G1 X10.615 Y117.445 E5.04249
G1 X10.838 Y118.393 E5.08784
G1 X11.168 Y119.384 E5.13647
G1 X11.529 Y120.212 E5.17853
G1 X11.994 Y121.068 E5.22389
G1 X12.531 Y121.879 E5.26919
G1 X13.184 Y122.694 E5.31781
G1 X13.81 Y123.346 E5.3599
G1 X14.543 Y123.988 E5.40527
G1 X15.358 Y124.582 E5.45223
G1 X16.163 Y125.066 E5.49597
G1 X17.038 Y125.494 E5.54133
G1 X17.946 Y125.842 E5.58661
G1 X18.882 Y126.109 E5.63193
G1 X19.84 Y126.291 E5.67734
G1 X22.777 Y126.709 E5.81547
G1 X25.215 Y127.131 E5.93069
G1 X27.679 Y127.627 E6.04772
G1 X30.175 Y128.204 E6.16701
G1 X32.582 Y128.832 E6.28284
G1 X35.018 Y129.544 E6.40102
G1 X37.4 Y130.312 E6.51756
G1 X39.783 Y131.156 E6.63527
G1 X42.115 Y132.057 E6.75168
G1 X44.446 Y133.034 E6.86937
G1 X46.744 Y134.075 E6.98685
G1 X49.009 Y135.179 E7.10417
G1 X51.254 Y136.352 E7.22212
G1 X53.437 Y137.574 E7.33861
G1 X55.589 Y138.858 E7.4553
G1 X57.706 Y140.205 E7.57214
G1 X59.78 Y141.608 E7.68873
G1 X61.868 Y143.112 E7.80856
G1 X63.825 Y144.602 E7.92309
G1 X65.806 Y146.204 E8.04172
G1 X67.699 Y147.824 E8.15774
G1 X69.583 Y149.532 E8.27615
G1 X71.406 Y151.279 E8.39372
G1 X73.172 Y153.072 E8.51091
G1 X74.872 Y154.899 E8.62711
G1 X76.523 Y156.776 E8.74351
G1 X78.15 Y158.736 E8.86213
G1 X79.701 Y160.715 E8.97921
G1 X81.198 Y162.741 E9.0965
G1 X82.639 Y164.81 E9.21391
G1 X83.999 Y166.887 E9.32951
G1 X85.335 Y169.058 E9.44821
G1 X86.599 Y171.25 E9.56603
G1 X87.79 Y173.452 E9.6826
G1 X88.909 Y175.674 E9.79845
G1 X89.98 Y177.96 E9.916
G1 X91.007 Y180.319 E10.0358
G1 X91.931 Y182.616 E10.15109
G1 X92.796 Y184.964 E10.2676
G1 X93.621 Y187.409 E10.38776
G1 X94.345 Y189.769 E10.50271
G1 X95.013 Y192.202 E10.62019
G1 X95.61 Y194.641 E10.73711
G1 X96.146 Y197.124 E10.85539
G1 X96.602 Y199.578 E10.97162
G1 X96.989 Y202.041 E11.08771
G1 X97.317 Y204.604 E11.20803
G1 X97.562 Y207.071 E11.32347
G1 X97.737 Y209.551 E11.43924
G1 X97.846 Y212.097 E11.5579
G1 X97.883 Y214.691 E11.6787
G1 X97.883 Y220.864 E11.96614
G1 X97.896 Y221.473 E11.9945
G1 X97.995 Y222.676 E12.05071
G1 X98.173 Y223.645 E12.09658
G1 X98.433 Y224.583 E12.14191
G1 X98.778 Y225.5 E12.18753
G0 F6000 X99.219 Y225.5
G1 F1200 X99.149 Y225.354 E12.19507
G1 X98.818 Y224.476 E12.23876
G1 X98.566 Y223.572 E12.28246
G1 X98.394 Y222.643 E12.32645
G1 X98.296 Y221.464 E12.38154
G1 X98.283 Y220.855 E12.40991
G1 X98.283 Y214.691 E12.69693
G1 X98.246 Y212.091 E12.81801
G1 X98.137 Y209.534 E12.93718
G1 X97.961 Y207.043 E13.05346
G1 X97.714 Y204.553 E13.16997
G1 X97.386 Y201.99 E13.29029
G1 X96.997 Y199.516 E13.40691
G1 X96.539 Y197.051 E13.52365
G1 X95.999 Y194.546 E13.64297
G1 X95.402 Y192.107 E13.7599
G1 X94.73 Y189.663 E13.87792
G1 X94 Y187.281 E13.99393
G1 X93.175 Y184.836 E14.11409
G1 X92.306 Y182.478 E14.2311
G1 X91.374 Y180.159 E14.34748
G1 X90.347 Y177.8 E14.46728
G1 X89.271 Y175.504 E14.58535
G1 X88.147 Y173.272 E14.70172
G1 X86.946 Y171.05 E14.81933
G1 X85.682 Y168.858 E14.93715
G1 X84.34 Y166.677 E15.0564
G1 X82.974 Y164.591 E15.1725
G1 X81.52 Y162.503 E15.29098
G1 X80.023 Y160.477 E15.40828
G1 X78.465 Y158.489 E15.52589
G1 X76.83 Y156.52 E15.64506
G1 X75.172 Y154.635 E15.76196
G1 X73.457 Y152.791 E15.87922
G1 X71.691 Y150.998 E15.9964
G1 X69.86 Y149.243 E16.1145
G1 X67.968 Y147.528 E16.23341
G1 X66.058 Y145.893 E16.35048
G1 X64.077 Y144.291 E16.46911
G1 X62.102 Y142.787 E16.58471
G1 X60.014 Y141.284 E16.7045
G1 X57.93 Y139.874 E16.82167
G1 X55.804 Y138.521 E16.93901
G1 X53.632 Y137.225 E17.05678
G1 X51.449 Y136.003 E17.17327
G1 X49.184 Y134.819 E17.29228
G1 X46.919 Y133.715 E17.40961
G1 X44.601 Y132.665 E17.5281
G1 X42.27 Y131.688 E17.64579
G1 X39.917 Y130.779 E17.76325
G1 X37.523 Y129.931 E17.88151
G1 X35.141 Y129.163 E17.99805
G1 X32.694 Y128.448 E18.11676
G1 X30.265 Y127.814 E18.23365
G1 X27.769 Y127.237 E18.35294
G1 X25.291 Y126.738 E18.47064
G1 X22.833 Y126.313 E18.5868
G1 X19.914 Y125.898 E18.72408
G1 X18.991 Y125.724 E18.76782
G1 X18.089 Y125.468 E18.81148
G1 X17.213 Y125.134 E18.85513
G1 X16.369 Y124.723 E18.89885
G1 X15.564 Y124.239 E18.94258
G1 X14.806 Y123.687 E18.98625
G1 X14.099 Y123.069 E19.02997
G1 X13.473 Y122.417 E19.07206
G1 X12.864 Y121.658 E19.11737
G1 X12.345 Y120.877 E19.16104
G1 X11.896 Y120.052 E19.20477
G1 X11.535 Y119.224 E19.24683
G1 X11.227 Y118.301 E19.29214
G1 X11.011 Y117.387 E19.33587
G1 X10.88 Y116.494 E19.3779
G1 X10.828 Y115.692 E19.41532
G1 X10.815 Y115.074 E19.44411
G1 X10.816 Y15.931 E24.06062
G1 X10.827 Y15.248 E24.09243
G1 X10.884 Y14.311 E24.13614
G1 X11.024 Y13.384 E24.17979
G1 X11.245 Y12.471 E24.22353
G1 X11.547 Y11.582 E24.26725
G1 X11.925 Y10.724 E24.31091
G1 X12.378 Y9.902 E24.35461
G1 X12.648 Y9.5 E24.37716
G0 F6000 X13.129 Y9.5
G1 F1200 X12.71 Y10.125 E24.4122
G1 X12.276 Y10.916 E24.45421
G1 X11.913 Y11.743 E24.49627
G1 X11.624 Y12.599 E24.53834
G1 X11.413 Y13.477 E24.58038
G1 X11.28 Y14.37 E24.62242
G1 X11.226 Y15.272 E24.6645
G1 X11.216 Y15.937 E24.69547
G1 X11.215 Y115.074 E29.3117
G1 X11.228 Y115.683 E29.34007
G1 X11.276 Y116.436 E29.3752
G1 X11.407 Y117.329 E29.41723
G1 X11.616 Y118.208 E29.4593
G1 X11.902 Y119.064 E29.50132
G1 X12.263 Y119.892 E29.54338
G1 X12.696 Y120.685 E29.58545
G1 X13.197 Y121.436 E29.62749
G1 X13.762 Y122.14 E29.66952
G1 X14.388 Y122.792 E29.71161
G1 X15.069 Y123.385 E29.75366
G1 X15.799 Y123.916 E29.79569
G1 X16.574 Y124.38 E29.83775
G1 X17.387 Y124.774 E29.87982
G1 X18.231 Y125.094 E29.92185
G1 X19.1 Y125.339 E29.96389
G1 X19.988 Y125.505 E30.00596
G1 X22.889 Y125.917 E30.1424
G1 X25.367 Y126.345 E30.25949
G1 X27.859 Y126.847 E30.37786
G1 X30.355 Y127.424 E30.49715
G1 X32.806 Y128.064 E30.61511
G1 X35.264 Y128.782 E30.73434
G1 X37.646 Y129.55 E30.85088
G1 X40.051 Y130.402 E30.96969
G1 X42.425 Y131.319 E31.08819
G1 X44.756 Y132.296 E31.20588
G1 X47.094 Y133.355 E31.3254
G1 X49.359 Y134.459 E31.44272
G1 X51.644 Y135.654 E31.5628
G1 X53.827 Y136.876 E31.67929
G1 X56.019 Y138.184 E31.79815
G1 X58.154 Y139.543 E31.91599
G1 X60.248 Y140.96 E32.03373
G1 X62.336 Y142.462 E32.15349
G1 X64.328 Y143.98 E32.27011
G1 X66.318 Y145.589 E32.38927
G1 X68.237 Y147.232 E32.50691
G1 X70.137 Y148.954 E32.62631
G1 X71.976 Y150.717 E32.74493
G1 X73.742 Y152.51 E32.86212
G1 X75.472 Y154.371 E32.98044
G1 X77.137 Y156.264 E33.09783
G1 X78.78 Y158.242 E33.21756
G1 X80.345 Y160.239 E33.3357
G1 X81.842 Y162.265 E33.453
G1 X83.309 Y164.372 E33.57255
G1 X84.681 Y166.467 E33.68916
G1 X86.029 Y168.658 E33.80894
G1 X87.293 Y170.85 E33.92677
G1 X88.504 Y173.092 E34.04542
G1 X89.633 Y175.334 E34.16231
G1 X90.714 Y177.64 E34.2809
G1 X91.741 Y179.999 E34.4007
G1 X92.681 Y182.34 E34.51816
G1 X93.554 Y184.708 E34.63568
G1 X94.379 Y187.153 E34.75584
G1 X95.115 Y189.557 E34.87291
G1 X95.791 Y192.012 E34.99148
G1 X96.388 Y194.451 E35.1084
G1 X96.932 Y196.978 E35.22876
G1 X97.392 Y199.454 E35.34603
G1 X97.783 Y201.939 E35.46317
G1 X98.111 Y204.502 E35.58348
G1 X98.36 Y207.015 E35.70107
G1 X98.537 Y209.517 E35.81787
G1 X98.646 Y212.085 E35.93755
G1 X98.683 Y214.691 E36.05891
G1 X98.683 Y220.846 E36.34551
G1 X98.696 Y221.455 E36.37388
G1 X98.793 Y222.61 E36.42785
G1 X98.959 Y223.498 E36.46991
G1 X99.203 Y224.368 E36.51199
G1 X99.523 Y225.212 E36.55402
G1 X99.663 Y225.5 E36.56893
G1 F2700 E31.56893
G0 F6000 X228.98 Y225.5
G1 F2700 E36.56893
G1 F1200 X229.13 Y225.155 E36.58644
G1 X229.44 Y224.233 E36.63174
G1 X229.669 Y223.287 E36.67706
G1 X229.814 Y222.324 E36.72241
G1 X229.871 Y221.351 E36.76779
G1 X229.882 Y220.588 E36.80332
G1 X229.883 Y121.518 E41.41644
G1 X229.87 Y120.894 E41.4455
G1 X229.814 Y120.057 E41.48456
G1 X229.684 Y119.163 E41.52663
G1 X229.461 Y118.215 E41.57198
G1 X229.131 Y117.224 E41.62061
G1 X228.77 Y116.396 E41.66267
G1 X228.27 Y115.479 E41.71131
G1 X227.769 Y114.727 E41.75338
G1 X227.116 Y113.913 E41.80197
G1 X226.491 Y113.262 E41.844
G1 X225.702 Y112.574 E41.89274
G1 X224.971 Y112.043 E41.93481
G1 X224.139 Y111.54 E41.98008
G1 X223.263 Y111.112 E42.02548
G1 X222.355 Y110.764 E42.07076
G1 X221.419 Y110.497 E42.11608
G1 X220.462 Y110.314 E42.16145
G1 X217.51 Y109.892 E42.30031
G1 X215.081 Y109.473 E42.41508
G1 X212.619 Y108.977 E42.53203
G1 X210.123 Y108.4 E42.65132
G1 X207.708 Y107.77 E42.76753
G1 X205.28 Y107.06 E42.88533
G1 X202.898 Y106.292 E43.00186
G1 X200.515 Y105.448 E43.11958
G1 X198.183 Y104.547 E43.23599
G1 X195.852 Y103.57 E43.35368
G1 X193.554 Y102.529 E43.47115
G1 X191.289 Y101.425 E43.58848
G1 X189.044 Y100.252 E43.70643
G1 X186.861 Y99.03 E43.82292
G1 X184.707 Y97.744 E43.93973
G1 X182.574 Y96.387 E44.05745
G1 X180.518 Y94.996 E44.17304
G1 X178.43 Y93.492 E44.29286
G1 X176.464 Y91.995 E44.40793
G1 X174.492 Y90.4 E44.52603
G1 X172.581 Y88.764 E44.64317
G1 X170.714 Y87.071 E44.76052
G1 X168.876 Y85.309 E44.87908
G1 X167.125 Y83.531 E44.99528
G1 X165.412 Y81.689 E45.11241
G1 X163.76 Y79.811 E45.22887
G1 X162.155 Y77.877 E45.3459
G1 X160.583 Y75.871 E45.46457
G1 X159.095 Y73.855 E45.58125
G1 X157.654 Y71.788 E45.69858
G1 X156.272 Y69.675 E45.81614
G1 X154.946 Y67.518 E45.93404
G1 X153.708 Y65.37 E46.04949
G1 X152.498 Y63.132 E46.16795
G1 X151.379 Y60.91 E46.2838
G1 X150.318 Y58.644 E46.4003
G1 X149.286 Y56.273 E46.52071
G1 X148.368 Y53.988 E46.63538
G1 X147.494 Y51.617 E46.75304
G1 X146.683 Y49.215 E46.87109
G1 X145.95 Y46.824 E46.98754
G1 X145.279 Y44.38 E47.10556
G1 X144.686 Y41.956 E47.22176
G1 X144.149 Y39.464 E47.34046
G1 X143.691 Y36.999 E47.4572
G1 X143.305 Y34.538 E47.5732
G1 X142.984 Y32.03 E47.69094
G1 X142.735 Y29.513 E47.80871
G1 X142.561 Y27.05 E47.92368
G1 X142.452 Y24.485 E48.04323
G1 X142.415 Y21.913 E48.163
G1 X142.415 Y15.728 E48.451
G1 X142.4 Y15.071 E48.4816
G1 X142.305 Y13.941 E48.53441
G1 X142.128 Y12.975 E48.58014
G1 X141.859 Y12.003 E48.6271
G1 X141.53 Y11.125 E48.67076
G1 X141.076 Y10.183 E48.71945
G1 X140.669 Y9.5 E48.75647
G0 F6000 X140.189 Y9.5
G1 F1200 X140.27 Y9.612 E48.76291
G1 X140.732 Y10.388 E48.80496
G1 X141.155 Y11.265 E48.8503
G1 X141.484 Y12.143 E48.89396
G1 X141.735 Y13.048 E48.93769
G1 X141.906 Y13.975 E48.98158
G1 X142.001 Y15.105 E49.03439
G1 X142.015 Y15.737 E49.06382
G1 X142.015 Y21.913 E49.3514
G1 X142.052 Y24.502 E49.47197
G1 X142.161 Y27.067 E49.59151
G1 X142.337 Y29.552 E49.70752
G1 X142.587 Y32.081 E49.82585
G1 X142.908 Y34.589 E49.94359
G1 X143.298 Y37.072 E50.06062
G1 X143.758 Y39.548 E50.17789
G1 X144.297 Y42.051 E50.29711
G1 X144.893 Y44.486 E50.41384
G1 X145.565 Y46.93 E50.53187
G1 X146.304 Y49.343 E50.64938
G1 X147.115 Y51.745 E50.76743
G1 X147.997 Y54.137 E50.88614
G1 X148.919 Y56.433 E51.00135
G1 X149.951 Y58.804 E51.12176
G1 X151.022 Y61.09 E51.23931
G1 X152.146 Y63.322 E51.35567
G1 X153.361 Y65.57 E51.47466
G1 X154.605 Y67.728 E51.59065
G1 X155.937 Y69.894 E51.70905
G1 X157.326 Y72.017 E51.82718
G1 X158.773 Y74.093 E51.94502
G1 X160.268 Y76.118 E52.06222
G1 X161.84 Y78.124 E52.18089
G1 X163.452 Y80.066 E52.29842
G1 X165.119 Y81.961 E52.41594
G1 X166.84 Y83.812 E52.53363
G1 X168.599 Y85.598 E52.65035
G1 X170.437 Y87.36 E52.76891
G1 X172.321 Y89.068 E52.88732
G1 X174.24 Y90.711 E53.00496
G1 X176.212 Y92.306 E53.12306
G1 X178.196 Y93.817 E53.23918
G1 X180.284 Y95.32 E53.35898
G1 X182.359 Y96.724 E53.47564
G1 X184.493 Y98.082 E53.59342
G1 X186.666 Y99.379 E53.71126
G1 X188.849 Y100.601 E53.82775
G1 X191.114 Y101.785 E53.94676
G1 X193.379 Y102.889 E54.06409
G1 X195.697 Y103.939 E54.18258
G1 X198.028 Y104.916 E54.30027
G1 X200.381 Y105.825 E54.41773
G1 X202.775 Y106.673 E54.53599
G1 X205.157 Y107.441 E54.65253
G1 X207.6 Y108.155 E54.77104
G1 X210.033 Y108.79 E54.88813
G1 X212.529 Y109.367 E55.00742
G1 X215.006 Y109.866 E55.12507
G1 X217.453 Y110.288 E55.2407
G1 X220.387 Y110.707 E55.3787
G1 X221.31 Y110.882 E55.42245
G1 X222.212 Y111.138 E55.46611
G1 X223.088 Y111.472 E55.50976
G1 X223.933 Y111.883 E55.55352
G1 X224.736 Y112.367 E55.59717
G1 X225.467 Y112.898 E55.63924
G1 X226.202 Y113.539 E55.68466
G1 X226.827 Y114.19 E55.72668
G1 X227.436 Y114.949 E55.77199
G1 X227.937 Y115.701 E55.81407
G1 X228.403 Y116.556 E55.85941
G1 X228.764 Y117.384 E55.90147
G1 X229.072 Y118.307 E55.94678
G1 X229.288 Y119.221 E55.99051
G1 X229.418 Y120.115 E56.03257
G1 X229.47 Y120.902 E56.0693
G1 X229.483 Y121.518 E56.09799
G1 X229.482 Y220.583 E60.71087
G1 X229.472 Y221.328 E60.74557
G1 X229.418 Y222.265 E60.78927
G1 X229.28 Y223.194 E60.833
G1 X229.061 Y224.106 E60.87667
G1 X228.763 Y224.996 E60.92038
G1 X228.544 Y225.5 E60.94597
G0 F6000 X228.107 Y225.5
G1 F1200 X228.396 Y224.836 E60.97969
G1 X228.682 Y223.979 E61.02176
G1 X228.891 Y223.101 E61.06378
G1 X229.022 Y222.207 E61.10585
G1 X229.073 Y221.305 E61.14792
G1 X229.082 Y220.578 E61.18178
G1 X229.083 Y121.518 E65.79443
G1 X229.07 Y120.911 E65.8227
G1 X229.022 Y120.173 E65.85713
G1 X228.892 Y119.279 E65.8992
G1 X228.683 Y118.4 E65.94127
G1 X228.397 Y117.544 E65.9833
G1 X228.036 Y116.716 E66.02536
G1 X227.604 Y115.923 E66.06741
G1 X227.103 Y115.171 E66.10948
G1 X226.538 Y114.467 E66.15151
G1 X225.913 Y113.816 E66.19354
G1 X225.232 Y113.222 E66.23561
G1 X224.501 Y112.691 E66.27768
G1 X223.727 Y112.226 E66.31973
G1 X222.914 Y111.832 E66.3618
G1 X222.07 Y111.512 E66.40383
G1 X221.201 Y111.267 E66.44587
G1 X220.313 Y111.1 E66.48794
G1 X217.397 Y110.684 E66.6251
G1 X214.931 Y110.259 E66.74162
G1 X212.439 Y109.757 E66.85999
G1 X209.943 Y109.18 E66.97928
G1 X207.492 Y108.54 E67.09723
G1 X205.034 Y107.822 E67.21647
G1 X202.652 Y107.054 E67.33301
G1 X200.247 Y106.202 E67.45182
G1 X197.873 Y105.285 E67.57032
G1 X195.542 Y104.308 E67.68801
G1 X193.204 Y103.249 E67.80752
G1 X190.939 Y102.145 E67.92485
G1 X188.654 Y100.95 E68.04492
G1 X186.471 Y99.728 E68.16142
G1 X184.279 Y98.42 E68.28027
G1 X182.144 Y97.061 E68.39812
G1 X180.05 Y95.644 E68.51585
G1 X177.962 Y94.142 E68.63562
G1 X175.97 Y92.624 E68.75224
G1 X173.98 Y91.015 E68.8714
G1 X172.061 Y89.372 E68.98904
G1 X170.16 Y87.649 E69.1085
G1 X168.322 Y85.887 E69.22706
G1 X166.555 Y84.093 E69.34431
G1 X164.826 Y82.233 E69.46256
G1 X163.145 Y80.322 E69.58108
G1 X161.532 Y78.38 E69.69863
G1 X159.953 Y76.365 E69.81783
G1 X158.451 Y74.331 E69.93557
G1 X156.998 Y72.246 E70.0539
G1 X155.602 Y70.113 E70.1726
G1 X154.264 Y67.938 E70.29151
G1 X153.014 Y65.77 E70.40804
G1 X151.794 Y63.512 E70.52755
G1 X150.665 Y61.27 E70.64443
G1 X149.584 Y58.964 E70.76302
G1 X148.552 Y56.593 E70.88343
G1 X147.626 Y54.286 E70.99919
G1 X146.736 Y51.873 E71.11894
G1 X145.925 Y49.471 E71.23699
G1 X145.18 Y47.036 E71.35557
G1 X144.507 Y44.592 E71.47361
